assets/icons/calender.svg

<svg height="120" viewBox="0 0 130 120" width="130" xmlns="http://www.w3.org/2000/svg"><g fill="#29c66f"><path d="m120.875 6.75h-12.5v7.5a2.507 2.507 0 0 1 -2.5 2.5h-5a2.507 2.507 0 0 1 -2.5-2.5v-7.5h-60v7.5a2.507 2.507 0 0 1 -2.5 2.5h-5a2.507 2.507 0 0 1 -2.5-2.5v-7.5h-12.5a12.537 12.537 0 0 0 -12.5 12.5v85a12.537 12.537 0 0 0 12.5 12.5h105a12.537 12.537 0 0 0 12.5-12.5v-85a12.537 12.537 0 0 0 -12.5-12.5zm2.5 93.75a6.268 6.268 0 0 1 -6.25 6.25h-97.5a6.268 6.268 0 0 1 -6.25-6.25v-56.25a2.507 2.507 0 0 1 2.5-2.5h105a2.507 2.507 0 0 1 2.5 2.5z" transform="translate(-3.375 3.25)"/><path d="m19 7a2.507 2.507 0 0 0 -2.5-2.5h-5a2.507 2.507 0 0 0 -2.5 2.5v7.5h10z" transform="translate(16 -4.5)"/><path d="m34.75 7a2.507 2.507 0 0 0 -2.5-2.5h-5a2.507 2.507 0 0 0 -2.5 2.5v7.5h10z" transform="translate(70.25 -4.5)"/><path d="m18.232 1.252-4.591 9.309-10.273 1.5a2.251 2.251 0 0 0 -1.245 3.839l7.432 7.24-1.755 10.23a2.249 2.249 0 0 0 3.262 2.37l9.19-4.83 9.19 4.83a2.25 2.25 0 0 0 3.258-2.37l-1.755-10.23 7.432-7.24a2.251 2.251 0 0 0 -1.245-3.839l-10.273-1.5-4.591-9.309a2.252 2.252 0 0 0 -4.036 0z" transform="translate(44.32 59.999)"/></g></svg>

<svg id="Group_1866" data-name="Group 1866" xmlns="http://www.w3.org/2000/svg" width="130" height="120" viewBox="0 0 130 120">
  <g id="Icon_ionic-ios-calendar" data-name="Icon ionic-ios-calendar">
    <path id="Path_4052" data-name="Path 4052" d="M120.875,6.75h-12.5v7.5a2.507,2.507,0,0,1-2.5,2.5h-5a2.507,2.507,0,0,1-2.5-2.5V6.75h-60v7.5a2.507,2.507,0,0,1-2.5,2.5h-5a2.507,2.507,0,0,1-2.5-2.5V6.75h-12.5a12.537,12.537,0,0,0-12.5,12.5v85a12.537,12.537,0,0,0,12.5,12.5h105a12.537,12.537,0,0,0,12.5-12.5v-85A12.537,12.537,0,0,0,120.875,6.75Zm2.5,93.75a6.268,6.268,0,0,1-6.25,6.25h-97.5a6.268,6.268,0,0,1-6.25-6.25V44.25a2.507,2.507,0,0,1,2.5-2.5h105a2.507,2.507,0,0,1,2.5,2.5Z" transform="translate(-3.375 3.25)" fill="#29c66f"/>
    <path id="Path_4053" data-name="Path 4053" d="M19,7a2.507,2.507,0,0,0-2.5-2.5h-5A2.507,2.507,0,0,0,9,7v7.5H19Z" transform="translate(16 -4.5)" fill="#29c66f"/>
    <path id="Path_4054" data-name="Path 4054" d="M34.75,7a2.507,2.507,0,0,0-2.5-2.5h-5A2.507,2.507,0,0,0,24.75,7v7.5h10Z" transform="translate(70.25 -4.5)" fill="#29c66f"/>
  </g>
  <path id="Icon_awesome-star" data-name="Icon awesome-star" d="M18.232,1.252l-4.591,9.309-10.273,1.5A2.251,2.251,0,0,0,2.123,15.9L9.555,23.14,7.8,33.37a2.249,2.249,0,0,0,3.262,2.37l9.19-4.83,9.19,4.83A2.25,2.25,0,0,0,32.7,33.37L30.945,23.14,38.377,15.9a2.251,2.251,0,0,0-1.245-3.839l-10.273-1.5L22.268,1.252a2.252,2.252,0,0,0-4.036,0Z" transform="translate(44.32 59.999)" fill="#29c66f"/>
</svg>
